archdroid-icon-theme/Archdroid-Amber/mimetypes/scalable/text-x-gtkrc.svg

<svg xmlns="http://www.w3.org/2000/svg" viewBox="0 0 48 48" fill="#4caf50"><path d="m12 4c-2.21 0-3.98 1.79-3.98 4l-.02 32c0 2.21 1.77 4 3.98 4h24.02c2.21 0 4-1.79 4-4v-24l-12-12h-16m14 3l11 11h-11v-11m-10 17h16v4h-16v-4m0 8h16v4h-16v-4" fill="#729fcf"/><path d="m8.01 20l-.012 20c0 2.21 1.77 4 3.98 4h12.02v-8h-8v-4h8v-4h-8v-4h8v-4h-15.988" fill="#e40000"/><path d="m24 20v4h8v4h-8v4h8v4h-8v8h12c2.21 0 4-1.79 4-4v-20h-16" fill="#7fe719"/></svg>

<?xml version="1.0" encoding="UTF-8" standalone="no"?>
<svg
   xmlns:dc="http://purl.org/dc/elements/1.1/"
   xmlns:cc="http://creativecommons.org/ns#"
   xmlns:rdf="http://www.w3.org/1999/02/22-rdf-syntax-ns#"
   xmlns:svg="http://www.w3.org/2000/svg"
   xmlns="http://www.w3.org/2000/svg"
   xmlns:sodipodi="http://sodipodi.sourceforge.net/DTD/sodipodi-0.dtd"
   xmlns:inkscape="http://www.inkscape.org/namespaces/inkscape"
   width="48"
   height="48"
   viewBox="0 0 48 48"
   id="svg2"
   version="1.1"
   inkscape:version="0.91 r13725"
   sodipodi:docname="text-x-gtkrc.svg"
   style="fill:#4caf50">
  <metadata
     id="metadata10">
    <rdf:RDF>
      <cc:Work
         rdf:about="">
        <dc:format>image/svg+xml</dc:format>
        <dc:type
           rdf:resource="http://purl.org/dc/dcmitype/StillImage" />
        <dc:title />
      </cc:Work>
    </rdf:RDF>
  </metadata>
  <defs
     id="defs8" />
  <sodipodi:namedview
     pagecolor="#ffffff"
     bordercolor="#666666"
     borderopacity="1"
     objecttolerance="10"
     gridtolerance="10"
     guidetolerance="10"
     inkscape:pageopacity="0"
     inkscape:pageshadow="2"
     inkscape:window-width="1366"
     inkscape:window-height="713"
     id="namedview6"
     showgrid="false"
     fit-margin-top="0"
     fit-margin-left="0"
     fit-margin-right="0"
     fit-margin-bottom="0"
     inkscape:zoom="2.44501503323108"
     inkscape:cx="-100.6410969146187"
     inkscape:cy="-30.75112315610688"
     inkscape:window-x="0"
     inkscape:window-y="30"
     inkscape:window-maximized="1"
     inkscape:current-layer="svg2"
     inkscape:snap-bbox="true"
     inkscape:bbox-nodes="true" />
  <path
     style="fill:#729fcf;fill-opacity:1"
     d="M 12 4 C 9.789999999999999 4 8.019531249999998 5.789999999999999 8.01953125 8 L 8 40 C 8 42.21 9.770468750000001 44 11.98046875 44 L 36 44 C 38.21 44 40 42.21 40 40 L 40 16 L 28 4 L 12 4 z M 26 7 L 37 18 L 26 18 L 26 7 z M 16 24 L 32 24 L 32 28 L 16 28 L 16 24 z M 16 32 L 32 32 L 32 36 L 16 36 L 16 32 z "
     id="path4192" />
  <path
     style="fill:#e40000;fill-opacity:1"
     d="M 8.01171875 20 L 8 40 C 8 42.21 9.770468750000001 44 11.98046875 44 L 24 44 L 24 36 L 16 36 L 16 32 L 24 32 L 24 28 L 16 28 L 16 24 L 24 24 L 24 20 L 8.01171875 20 z "
     id="path4210" />
  <path
     style="fill:#7fe719;fill-opacity:1"
     d="M 24 20 L 24 24 L 32 24 L 32 28 L 24 28 L 24 32 L 32 32 L 32 36 L 24 36 L 24 44 L 36 44 C 38.21 44 40 42.21 40 40 L 40 20 L 24 20 z "
     id="path4250" />
</svg>
